X:1
T:Arnville, 87.87 D
T:Arnville, 87.87 D
T:Lowell Mason, 1844
T:Public Domain Courtesy of the Cyber Hymnal™
C:Lowell Mason, 1844
Z:Public Domain
Z:Courtesy of the Cyber Hymnal™
%%score ( 1 2 ) ( 3 4 )
L:1/8
Q:1/4=113
M:4/4
K:D
V:1 treble 
V:2 treble 
V:3 bass 
V:4 bass 
V:1
 [DF]2 [DF]2 [DF]2 [A,D]2 | [FA]2 [FA]2 [FA]2 [DF]2 | [DB]2 [DA]2 [Gc]2 [Fd]2 | %3
 [EG]2 [DF]2 ([DF]2 [CE]2) | [DF]2 [DF]2 [DF]2 [A,D]2 | [FA]2 [FA]2 [FA]2 [DF]2 | %6
 [DB]2 [DA]2 [Gc]2 [Fd]2 | [EG]2 [DF]2 ([DF]2 [CE]2) | [EA]3 [EA] [EA]2 [EA]2 | %9
 [^GB]3 [GB] [GB]2 [GB]2 | [Ac]2 [Ee]2 F2 [Fd]2 | [Ec]2 [EB]2 [EA]4 | DEFG A2 A2 | A2 Bc d2 A2 | %14
 [Fd]2 c2 [DB]2 [Ge]2 | [Fd]2 [Ec]2 [Fd]4 |] %16
V:2
 x8 | x8 | x8 | x8 | x8 | x8 | x8 | x8 | x8 | x8 | x4 F2 x2 | x8 | DEFG A2 A2 | A2 Bc d2 x2 | %14
 x2 (FE) x4 | x8 |] %16
V:3
 [D,A,]2 [D,A,]2 [D,A,]2 [D,F,]2 | D,2 D,2 D,2 [D,A,]2 | G,2 [F,A,]2 [E,A,]2 [D,A,]2 | %3
 [C,A,]2 [D,A,]2 [A,,A,]4 | [D,A,]2 [D,A,]2 [D,A,]2 [D,F,]2 | D,2 D,2 D,2 [D,A,]2 | %6
 G,2 [F,A,]2 [E,A,]2 [D,A,]2 | [C,A,]2 [D,A,]2 [A,,A,]4 | [A,C]3 [A,C] [A,C]2 [A,C]2 | %9
 E,3 E, E,2 E,2 | [E,A,]2 [C,A,]2 [D,A,]2 (A,B,) | [E,C]2 [E,D]2 [A,,C]4 | D,E,F,G, A,2 A,2 | %13
 A,2 B,C D2 A,2 | B,2 [F,C]2 [G,B,]2 [E,B,]2 | A,2 [A,,A,]2 [D,A,]4 |] %16
V:4
 x8 | D,2 D,2 D,2 x2 | G,2 x6 | x8 | x8 | D,2 D,2 D,2 x2 | G,2 x6 | x8 | x8 | E,3 E, E,2 E,2 | %10
 x6 D,2 | x8 | D,E,F,G, A,2 A,2 | A,2 B,C D2 A,2 | B,2 x6 | A,2 x6 |] %16

